X:1
T:The Holy Bible
T:The Holy Bible
T:Thomas Miles Bowdish
T:Adaline Hohf Beery, 1900
T:Public Domain Courtesy of the Cyber Hymnal™
T:Public Domain Courtesy of the Cyber Hymnal™
C:Thomas Miles Bowdish
Z:Public Domain
Z:Courtesy of the Cyber Hymnal™
%%score ( 1 2 ) ( 3 4 )
L:1/8
Q:1/4=100
M:4/4
K:Bb
V:1 treble 
V:2 treble 
V:3 bass 
V:4 bass 
V:1
 [B,D]>[CE] | [DF]2 [DF]2 [DF]2 [DB]>[DF] | [FA]2 [EG]2 [EG]2 [GB]>[EG] | %3
w: 1.~O thou|sac- red Book— may thy|light di- vine With its|
w: 2.~’Tis the|her- ald of our sal-|va- tion dear, For it|
w: 3.~May we|ev- er all thy com-|mand- ments keep, Fill- ing|
 [DF]2 [DF]2 [FB]2 [Fc]>[Fd] | [Fe]2 [Fd]2 [Fc]2 [B,D]>[CE] | [DF]2 [DF]2 [DF]2 [DB]>[DF] | %6
w: heal- ing balm ’round the|wide world shine! May thy|words of truth and thy|
w: bring- eth God’s lov- ing-|kind- ness near; In His|grace we trust, in His|
w: all our hearts like a|fount- ain deep, Flow- ing|forth in- to ev- er-|
 [FA]2 [EG]2 [EG]2 [GB]>[EG] | [DF]2 [DF]>[DF] [DB]2 A2 | [DB]6 ||"^Refrain" [Fd]>[Ec] | %10
w: ten- der grace Be our|com- fort in ev- ery|place.||
w: love we live, And our|wan- d’rings He doth for-|give.|Word of|
w: last- ing peace, Where the|woes of the world shall|cease.||
 [DB]6 [FA]>[EG] | [DF]6 [FB]>[Fc] | [Fd]2 [FB]2 [FA]2 [FB]2 | [Fc]6 [FB]>[Fc] | %14
w: ||||
w: God! Word of|life! As a|rock thy truth shall|stand; Thro’ the|
w: ||||
 [Fd]2 [DB]2 [DF]2 [DB]>[DF] | [FA]2 [EG]2 [EG]2 [GB]>[EG] | [DF]2 [DF]>[DF] [DB]2 A2 | [DB]6 |] %18
w: ||||
w: storm and calm Thou wilt|keep us true, And will|lead us to God’s right|hand.|
w: ||||
V:2
 x2 | x8 | x8 | x8 | x8 | x8 | x8 | x6 (CE) | x6 || x2 | x8 | x8 | x8 | x8 | x8 | x8 | x6 (CE) | %17
 x6 |] %18
V:3
 [B,,F,]>[B,,F,] | [B,,B,]2 [B,,B,]2 [B,,B,]2 [B,,F,]>[B,,B,] | %2
w: ~ ~|~ ~ ~ ~ ~|
 [E,B,]2 [E,B,]2 [E,B,]2 [E,B,]>[E,B,] | [B,,B,]2 [B,,B,]2 [D,B,]2 [F,A,]>B, | %4
w: ~ ~ ~ ~ ~|~ ~ ~ ~ ~|
 [A,C]2 B,2 [F,A,]2 [D,F,]>[C,F,] | [B,,B,]2 [B,,B,]2 [B,,B,]2 [B,,F,]>[B,,B,] | %6
w: ~ ~ ~ ~ ~|~ ~ ~ ~ ~|
 [E,B,]2 [E,B,]2 [E,B,]2 [E,B,]>[E,B,] | [F,B,]2 [F,B,]>[F,B,] F,2 F,2 | [B,,F,]6 || z2 | %10
w: ~ ~ ~ ~ ~|~ ~ ~ ~ ~|~||
 z2 [B,,F,]>[B,,F,] [B,,F,]2 z2 | z2 [B,,B,]>[B,,B,] [B,,B,]2 [D,B,]>[F,A,] | %12
w: Word of God!|Word of life! * *|
 B,2 [D,B,]2 [C,C]2 [B,,D]2 | [F,A,]6 [D,B,]>[C,A,] | [B,,B,]2 [B,,F,]2 [B,,B,]2 [B,,F,]>[B,,B,] | %15
w: |||
 [E,B,]2 [E,B,]2 [E,B,]2 [E,B,]>[E,B,] | [F,B,]2 [F,B,]>[F,B,] F,2 F,2 | [B,,F,]6 |] %18
w: |||
V:4
 x2 | x8 | x8 | x15/2 B,/ | x2 B,2 x4 | x8 | x8 | x4 F,2 F,2 | x6 || x2 | x8 | x8 | B,2 x6 | x8 | %14
 x8 | x8 | x4 F,2 F,2 | x6 |] %18

